X: 1
T: \AAttamannadans fr\aan \"Odsm\aal
O: Norway
Z: 2009 John Chambers <jc:trillian.mit.edu>
U: handwritten MS ofunknown origin
F: http://www.nordlek.fi/dokum/Attamannadans_original.pdf
Q: 1/4=78
M: 2/4
L: 1/16
K: G
|: "G"G,2B,D G2G2 | "D"FGAB "G"G2G2 \
|1,3 "D7"FGAB cBcA | "G"AGBG D2D2 \
:|2,4 "D7"FGAB c2AF | "G"A2G2 G4  :|
|: "G"d2Bd g2g2 | "Am"agfg A3B | "C"c2e2 "D7"edcA \
|1,3 "G"G2Bc d4 :|2,4 "G"G2G2 G4 :|

